X:0
T:Garden of Hollyhock, The
M:C
C:© Paul Gitlitz 2009
R:strathspey ?
K:Bm
"D"f2df "Bm"B<dFd|"A"e2ce "A/E"A<cEe|"Em"g2eg "D"fedf|"A"edce "Bm"d<BB2|!
"D"a2fa "Bm/F#"d<fBd|"A"e2ce "A/E"A<cEc|"Bm"Bdce "D"dfeg|"A"fedc "Bm"d<BB2:|!
|:"D"DAd<A "D"e<Afd|"A"EAc<A "A"d<Ae2|"D"FAd<A e<Afd|"A"cBAc "Bm"d<BB2|!
"D"DAd<A e<Afd|"A"EAc<A d<Ae2|1"Em"g2eg "D"fedf|"A"edce "Bm"d<BB2:|2"Bm"Bdce "D"dfeg|"A"fedc "Bm"d<BB2|]
